X:728
T:Jenny Long Legs
C:Nigel Gatherer
Z:Nigel Gatherer
M:4/4
L:1/4
K:D
FGAA | GFE2 | FGAA | G/F/ED2 :|
F/G/ ABA | G/F/E/F/ G/F/E | F/G/ ABA | G/F/ED2 :|
